icons/mobile/24/svg/thumbs-up-fill-24.svg

<svg width="24" height="24" viewBox="0 0 24 24" fill="none" xmlns="http://www.w3.org/2000/svg">
<path d="M4.92773 10.4277C5.2136 10.4277 5.48068 10.4494 5.72559 10.4824C6.3715 10.5704 6.85729 11.1098 6.85742 11.7617V20.667C6.85741 21.307 6.383 21.8563 5.75 21.9443C5.43202 21.9883 5.1527 22.001 4.92871 22.001C4.64282 22.001 4.37578 21.9803 4.13086 21.9473C3.48491 21.8592 3.00001 21.319 3 20.667V11.7617C3.00013 11.1218 3.47451 10.5733 4.10742 10.4854C4.42515 10.4414 4.70386 10.4277 4.92773 10.4277Z" fill="black"/>
<path d="M13.0771 4.00098C13.9021 4.00106 14.5713 4.67017 14.5713 5.49512V9.27832C15.4622 9.20133 16.4121 9.15058 17.416 9.14258C18.258 9.13558 19.066 9.1591 19.8359 9.2041C21.3759 9.2941 22.5141 10.6831 22.2461 12.2021C22.0321 13.4111 21.6858 14.7634 21.1328 16.1924C20.6758 17.3722 20.1546 18.4023 19.6377 19.2822C19.2127 20.006 18.4589 20.4553 17.6221 20.5293C16.3652 20.6403 15.0083 20.7108 13.5635 20.7158C11.7145 20.7218 10.0059 20.6209 8.46387 20.4609V11.29L10.5312 8.1377C10.6532 7.95178 10.7504 7.7519 10.8203 7.54102L11.6592 5.02344C11.8622 4.41344 12.4331 4.00098 13.0771 4.00098Z" fill="black"/>
</svg>

<!-- This Source Code Form is subject to the terms of the Mozilla Public
   - License, v. 2.0. If a copy of the MPL was not distributed with this
   - file, You can obtain one at http://mozilla.org/MPL/2.0/. -->
<svg xmlns="http://www.w3.org/2000/svg" width="24" height="24" fill="none" viewBox="0 0 24 24">
    <path fill="#000" d="M4.928 10.428c.286 0 .553.021.798.054a1.295 1.295 0 0 1 1.131 1.28v8.905c0 .64-.474 1.19-1.107 1.277a6 6 0 0 1-1.62.003A1.295 1.295 0 0 1 3 20.667v-8.905c0-.64.475-1.189 1.107-1.277.318-.044.597-.057.82-.057m8.15-6.427c.825 0 1.494.67 1.494 1.494v3.783a36 36 0 0 1 5.265-.074c1.54.09 2.678 1.48 2.41 2.998a21.3 21.3 0 0 1-2.608 7.08c-.425.724-1.18 1.173-2.016 1.247a48 48 0 0 1-9.158-.068V11.29l2.067-3.152q.184-.28.29-.597l.838-2.518a1.49 1.49 0 0 1 1.418-1.022" />
</svg>
